dist/files/product_invoicing_logo.svg

<svg width="142" height="142" viewBox="0 0 142 142" fill="none" xmlns="http://www.w3.org/2000/svg">
<g filter="url(#filter0_d_5335_2933)">
<circle cx="67" cy="68" r="59" fill="#152968"/>
</g>
<mask id="mask0_5335_2933" style="mask-type:luminance" maskUnits="userSpaceOnUse" x="33" y="31" width="64" height="74">
<path d="M33 31H96.7501V105H33V31Z" fill="white"/>
</mask>
<g mask="url(#mask0_5335_2933)">
<path d="M95.7508 30.9414H44.2606C43.7325 30.9414 43.2953 31.3786 43.2953 31.9067V78.2379C43.2953 78.766 43.7325 79.2032 44.2606 79.2032C44.7876 79.2032 45.2259 78.766 45.2259 78.2379V32.872H94.7855V93.6813C94.7855 96.1779 93.8202 98.5204 92.0565 100.284C90.2927 102.047 87.9503 103.012 85.4525 103.012C82.9559 103.012 80.6123 102.047 78.8497 100.284C77.086 98.5204 76.1207 96.1779 76.1207 93.6813C76.1207 93.4247 76.0171 93.1797 75.8365 92.999C75.657 92.8196 75.412 92.716 75.1543 92.716H45.2259V88.5339C45.2259 88.0058 44.7876 87.5686 44.2606 87.5686C43.7325 87.5686 43.2953 88.0058 43.2953 88.5339V92.716H33.9624C33.4343 92.716 32.9971 93.1544 32.9971 93.6813C32.9971 96.6934 34.1683 99.5121 36.2921 101.647C38.416 103.771 41.2486 104.943 44.2606 104.943H85.4525C88.4657 104.943 91.2845 103.771 93.421 101.647C95.5448 99.5248 96.7172 96.6934 96.7172 93.6813V31.9067C96.7172 31.3786 96.2789 30.9414 95.7508 30.9414ZM44.2606 103.012C41.7628 103.012 39.4204 102.047 37.6567 100.284C36.1242 98.7528 35.1854 96.7831 34.9794 94.6466H74.2407C74.4593 97.2985 75.6053 99.7434 77.4979 101.647C78.0121 102.163 78.5655 102.613 79.1454 103.012H44.2606ZM43.2953 84.6728V82.0991C43.2953 81.571 43.7325 81.1338 44.2606 81.1338C44.7876 81.1338 45.2259 81.571 45.2259 82.0991V84.6728C45.2259 85.2009 44.7876 85.638 44.2606 85.638C43.7325 85.638 43.2953 85.2009 43.2953 84.6728ZM50.0535 48.3153C49.5254 48.3153 49.087 47.8781 49.087 47.3501V39.6289C49.087 39.1009 49.5254 38.6637 50.0535 38.6637C50.5804 38.6637 51.0187 39.1009 51.0187 39.6289V47.3501C51.0187 47.8781 50.5804 48.3153 50.0535 48.3153ZM53.9146 48.3153C53.3865 48.3153 52.9493 47.8781 52.9493 47.3501V39.6289C52.9493 39.1779 53.2588 38.7925 53.696 38.689C54.1332 38.5866 54.5842 38.7925 54.7775 39.1906L56.8116 43.2577V39.6289C56.8116 39.1009 57.2488 38.6637 57.7769 38.6637C58.305 38.6637 58.7422 39.1009 58.7422 39.6289V47.3501C58.7422 47.8011 58.4327 48.1865 57.9955 48.29C57.9184 48.3027 57.8413 48.3153 57.7769 48.3153C57.4156 48.3153 57.082 48.1094 56.914 47.7884L54.8799 43.7213V47.3501C54.8799 47.8781 54.4427 48.3153 53.9146 48.3153ZM62.6044 47.5825L60.6992 39.8602C60.5703 39.3459 60.8913 38.8178 61.4067 38.689C61.9222 38.5601 62.4491 38.8823 62.578 39.3965L63.5559 43.3739L64.573 39.3965C64.7018 38.8823 65.2299 38.5601 65.7453 38.7016C66.2596 38.8305 66.5691 39.3586 66.4402 39.8729L64.4832 47.5951C64.3808 48.0197 63.9943 48.3291 63.5433 48.3291C63.1061 48.3291 62.7195 48.0197 62.6044 47.5951V47.5825ZM73.5458 45.4195V41.5595C73.5458 39.9637 72.2458 38.6637 70.6488 38.6637C69.0531 38.6637 67.753 39.9637 67.753 41.5595V45.4195C67.753 47.0164 69.0531 48.3153 70.6488 48.3153C72.2458 48.3153 73.5458 47.0164 73.5458 45.4195ZM69.6836 45.4195V41.5595C69.6836 41.0314 70.1219 40.5942 70.6488 40.5942C71.1769 40.5942 71.6153 41.0314 71.6153 41.5595V45.4195C71.6153 45.9476 71.1769 46.3848 70.6488 46.3848C70.1219 46.3848 69.6836 45.9476 69.6836 45.4195ZM75.7985 48.3153C75.2705 48.3153 74.8333 47.8781 74.8333 47.3501V39.6289C74.8333 39.1009 75.2705 38.6637 75.7985 38.6637C76.3266 38.6637 76.7638 39.1009 76.7638 39.6289V47.3501C76.7638 47.8781 76.3266 48.3153 75.7985 48.3153ZM80.832 41.4433C80.2913 41.9841 79.9818 42.7307 79.9818 43.4901C79.9818 44.2494 80.2913 44.9949 80.832 45.5357C81.3854 46.0764 82.1057 46.3848 82.8788 46.3848C83.4057 46.3848 83.8441 46.8231 83.8441 47.3501C83.8441 47.8781 83.4057 48.3153 82.8788 48.3153C81.5914 48.3153 80.381 47.8137 79.4675 46.9002C78.5655 45.9993 78.0513 44.751 78.0513 43.4901C78.0513 42.228 78.5655 40.9797 79.4675 40.0788C80.381 39.1653 81.5914 38.6637 82.8788 38.6637C83.4057 38.6637 83.8441 39.1009 83.8441 39.6289C83.8441 40.1559 83.4057 40.5942 82.8788 40.5942C82.1057 40.5942 81.3728 40.8899 80.832 41.4433ZM87.0621 40.5942V42.5248H88.6717C89.1986 42.5248 89.6369 42.962 89.6369 43.4901C89.6369 44.017 89.1986 44.4542 88.6717 44.4542H87.0621V46.3848H89.9579C90.486 46.3848 90.9244 46.8231 90.9244 47.3501C90.9244 47.8781 90.486 48.3153 89.9579 48.3153H86.0968C85.5687 48.3153 85.1315 47.8781 85.1315 47.3501V39.6289C85.1315 39.1009 85.5687 38.6637 86.0968 38.6637H89.9579C90.486 38.6637 90.9244 39.1009 90.9244 39.6289C90.9244 40.1559 90.486 40.5942 89.9579 40.5942H87.0621ZM48.4439 55.0723V78.2379C48.4439 78.766 48.8811 79.2032 49.4092 79.2032H90.6022C91.1303 79.2032 91.5675 78.766 91.5675 78.2379V55.0723C91.5675 54.5442 91.1303 54.107 90.6022 54.107H49.4092C48.8811 54.107 48.4439 54.5442 48.4439 55.0723ZM89.6369 69.5504H60.6727V63.7598H89.6369V69.5504ZM58.7422 69.5504H50.3745V63.7598H58.7422V69.5504ZM50.3745 71.481H58.7422V77.2727H50.3745V71.481ZM60.6727 77.2727V71.481H89.6369V77.2727H60.6727ZM89.6369 61.8293H60.6727V56.0376H89.6369V61.8293ZM50.3745 56.0376H58.7422V61.8293H50.3745V56.0376ZM48.4439 88.5339C48.4439 88.0058 48.8811 87.5686 49.4092 87.5686H62.2823C62.8104 87.5686 63.2476 88.0058 63.2476 88.5339C63.2476 89.0608 62.8104 89.4992 62.2823 89.4992H49.4092C48.8811 89.4992 48.4439 89.0608 48.4439 88.5339Z" fill="white"/>
</g>
<defs>
<filter id="filter0_d_5335_2933" x="0.6" y="0.6" width="140.8" height="140.8" filterUnits="userSpaceOnUse" color-interpolation-filters="sRGB">
<feFlood flood-opacity="0" result="BackgroundImageFix"/>
<feColorMatrix in="SourceAlpha" type="matrix" values="0 0 0 0 0 0 0 0 0 0 0 0 0 0 0 0 0 0 127 0" result="hardAlpha"/>
<feOffset dx="4" dy="3"/>
<feGaussianBlur stdDeviation="5.7"/>
<feComposite in2="hardAlpha" operator="out"/>
<feColorMatrix type="matrix" values="0 0 0 0 0.128333 0 0 0 0 0.119778 0 0 0 0 0.119778 0 0 0 0.25 0"/>
<feBlend mode="normal" in2="BackgroundImageFix" result="effect1_dropShadow_5335_2933"/>
<feBlend mode="normal" in="SourceGraphic" in2="effect1_dropShadow_5335_2933" result="shape"/>
</filter>
</defs>
</svg>

<svg width="142" height="142" fill="none" xmlns="http://www.w3.org/2000/svg"><g filter="url(#a)"><circle cx="67" cy="68" r="59" fill="#152968"/></g><mask id="b" style="mask-type:luminance" maskUnits="userSpaceOnUse" x="33" y="31" width="64" height="74"><path d="M33 31h63.75v74H33V31Z" fill="#fff"/></mask><g mask="url(#b)"><path d="M95.75 30.941H44.26a.972.972 0 0 0-.965.966v46.33c0 .529.438.966.966.966a.973.973 0 0 0 .965-.965V32.872h49.56v60.81c0 2.496-.966 4.838-2.73 6.602a9.27 9.27 0 0 1-6.603 2.728 9.267 9.267 0 0 1-6.603-2.728 9.266 9.266 0 0 1-2.73-6.603.966.966 0 0 0-.966-.965H45.226v-4.182a.973.973 0 0 0-.965-.965.972.972 0 0 0-.966.965v4.182h-9.333a.973.973 0 0 0-.965.965 11.21 11.21 0 0 0 3.295 7.966 11.198 11.198 0 0 0 7.969 3.296h41.191c3.014 0 5.832-1.172 7.969-3.296a11.19 11.19 0 0 0 3.296-7.966V31.907a.973.973 0 0 0-.966-.966Zm-51.49 72.071a9.27 9.27 0 0 1-6.603-2.728 9.178 9.178 0 0 1-2.678-5.637h39.262c.218 2.651 1.364 5.096 3.257 7 .514.516 1.067.966 1.647 1.365H44.261Zm-.965-18.34V82.1c0-.528.438-.965.966-.965.527 0 .965.437.965.965v2.574a.972.972 0 0 1-.965.965.972.972 0 0 1-.966-.965Zm6.758-36.357a.973.973 0 0 1-.966-.965V39.63c0-.528.438-.965.966-.965.527 0 .966.437.966.965v7.721a.972.972 0 0 1-.965.965Zm3.862 0a.972.972 0 0 1-.966-.965V39.63c0-.451.31-.837.747-.94a.955.955 0 0 1 1.082.502l2.034 4.067v-3.63c0-.527.437-.964.965-.964s.965.437.965.965v7.721a.965.965 0 0 1-.965.965.98.98 0 0 1-.863-.527l-2.034-4.067v3.63a.972.972 0 0 1-.965.964Zm8.69-.732-1.906-7.723a.972.972 0 0 1 .708-1.171.973.973 0 0 1 1.171.708l.978 3.977 1.017-3.977a.956.956 0 0 1 1.172-.695.965.965 0 0 1 .695 1.17l-1.957 7.723a.966.966 0 0 1-.94.734.988.988 0 0 1-.939-.734v-.012Zm10.94-2.163v-3.86a2.9 2.9 0 0 0-2.896-2.896 2.9 2.9 0 0 0-2.896 2.895v3.86a2.9 2.9 0 0 0 2.896 2.896 2.9 2.9 0 0 0 2.897-2.895Zm-3.861 0v-3.86c0-.529.438-.966.965-.966.528 0 .966.437.966.965v3.86a.973.973 0 0 1-.966.966.973.973 0 0 1-.965-.965Zm6.115 2.895a.972.972 0 0 1-.966-.965V39.63c0-.528.438-.965.966-.965s.965.437.965.965v7.721a.972.972 0 0 1-.965.965Zm5.033-6.872c-.54.541-.85 1.288-.85 2.047 0 .76.31 1.505.85 2.046.553.54 1.274.849 2.047.849.527 0 .965.438.965.965a.973.973 0 0 1-.965.965 4.791 4.791 0 0 1-3.412-1.415 4.862 4.862 0 0 1-1.416-3.41c0-1.262.514-2.51 1.416-3.411a4.791 4.791 0 0 1 3.412-1.415c.527 0 .965.437.965.965a.973.973 0 0 1-.965.965 2.84 2.84 0 0 0-2.047.85Zm6.23-.849v1.93h1.61c.527 0 .965.438.965.966a.972.972 0 0 1-.965.964h-1.61v1.93h2.896c.528 0 .966.44.966.966a.973.973 0 0 1-.966.965h-3.861a.972.972 0 0 1-.965-.965V39.63c0-.528.437-.965.965-.965h3.86c.529 0 .967.437.967.965a.974.974 0 0 1-.966.965h-2.896ZM48.444 55.072v23.166c0 .528.437.965.965.965h41.193a.972.972 0 0 0 .965-.965V55.072a.972.972 0 0 0-.965-.965H49.41a.972.972 0 0 0-.965.965ZM89.637 69.55H60.673v-5.79h28.964v5.79Zm-30.895 0h-8.367v-5.79h8.367v5.79Zm-8.367 1.931h8.367v5.792h-8.367V71.48Zm10.298 5.792V71.48h28.964v5.792H60.673Zm28.964-15.444H60.673v-5.791h28.964v5.791Zm-39.263-5.791h8.368v5.791h-8.367v-5.791Zm-1.93 32.496c0-.528.437-.965.965-.965h12.873c.528 0 .966.437.966.965a.973.973 0 0 1-.966.965H49.41a.973.973 0 0 1-.965-.965Z" fill="#fff"/></g><defs><filter id="a" x=".6" y=".6" width="140.8" height="140.8" filterUnits="userSpaceOnUse" color-interpolation-filters="sRGB"><feFlood flood-opacity="0" result="BackgroundImageFix"/><feColorMatrix in="SourceAlpha" values="0 0 0 0 0 0 0 0 0 0 0 0 0 0 0 0 0 0 127 0" result="hardAlpha"/><feOffset dx="4" dy="3"/><feGaussianBlur stdDeviation="5.7"/><feComposite in2="hardAlpha" operator="out"/><feColorMatrix values="0 0 0 0 0.128333 0 0 0 0 0.119778 0 0 0 0 0.119778 0 0 0 0.25 0"/><feBlend in2="BackgroundImageFix" result="effect1_dropShadow_5335_2933"/><feBlend in="SourceGraphic" in2="effect1_dropShadow_5335_2933" result="shape"/></filter></defs></svg>
